X:11
T:J'ai passe devant ta porte (Steve Riley with ring finger bouncing)
R:waltz
M:6/4
L:1/4
Q:1/4=90
K:C
{e}[Gg]{d}[Ff]|:{c}[E2e2]{B}[Dd] {G}[C2c2]{B}[Dd]|{c}[E3e3]{c}[Ee] \
{d}[Ff]{c}[Ee]|{B}[D2d2] {G}[Cc]{A}[B,2B2]{G}[Cc]|{B}[D4d4] \
{e}[Gg]{d}[Ff]| {c}[E3e3]{c}[Ee] {d}[Ff]{e}[Gg]|{f}[A/a/][A/a/][A/a/][A/a/][A/a/][A/a/][Aa]\
{e}[Gg]{d}[Ff] |{c}[E/e/][E/e/][Ee]{c}[Ee] {B}[D2d2]{B}[Dd] |{G}[C4c4] {e}[Gg]{d}[Ff]:|
